packages/web-app/public/favicon.svg

<svg width="16" height="16" viewBox="0 0 16 16" fill="none"
  xmlns="http://www.w3.org/2000/svg">
  <rect width="16" height="16" rx="2" fill="black" style="fill:black;fill-opacity:1;"/>
  <g clip-path="url(#paint0_angular_382_451_clip_path)" data-figma-skip-parse="true">
    <g transform="matrix(-1.4305e-10 0.002 -0.002 -1.43048e-10 12 5)">
      <foreignObject x="-3000" y="-3000" width="6000" height="6000">
        <div xmlns="http://www.w3.org/1999/xhtml" style="background:conic-gradient(from 90deg,rgba(9, 177, 188, 1) 0deg,rgba(9, 177, 188, 1) 25.9615deg,rgba(161, 143, 254, 1) 89.6131deg,rgba(111, 157, 254, 1) 180.715deg,rgba(3, 169, 239, 1) 270deg,rgba(9, 177, 188, 1) 360deg);height:100%;width:100%;opacity:1"></div>
      </foreignObject>
    </g>
  </g>
  <path fill-rule="evenodd" clip-rule="evenodd" d="M9 5C9 3.34315 10.3431 2 12 2C13.6569 2 15 3.34315 15 5V6C15 7.65685 13.6569 9 12 9H11V7H12C12.5523 7 13 6.55228 13 6V5C13 4.44772 12.5523 4 12 4C11.4477 4 11 4.44772 11 5H9Z" data-figma-gradient-fill="{&#34;type&#34;:&#34;GRADIENT_ANGULAR&#34;,&#34;stops&#34;:[{&#34;color&#34;:{&#34;r&#34;:0.036728978157043457,&#34;g&#34;:0.69576340913772583,&#34;b&#34;:0.74080401659011841,&#34;a&#34;:1.0},&#34;position&#34;:0.072115384042263031},{&#34;color&#34;:{&#34;r&#34;:0.63152480125427246,&#34;g&#34;:0.56152814626693726,&#34;b&#34;:0.99884122610092163,&#34;a&#34;:1.0},&#34;position&#34;:0.24892522394657135},{&#34;color&#34;:{&#34;r&#34;:0.43793088197708130,&#34;g&#34;:0.61853063106536865,&#34;b&#34;:0.99836909770965576,&#34;a&#34;:1.0},&#34;position&#34;:0.50198608636856079},{&#34;color&#34;:{&#34;r&#34;:0.014935921877622604,&#34;g&#34;:0.66657257080078125,&#34;b&#34;:0.93816560506820679,&#34;a&#34;:1.0},&#34;position&#34;:0.750},{&#34;color&#34;:{&#34;r&#34;:0.036728978157043457,&#34;g&#34;:0.69576340913772583,&#34;b&#34;:0.74080401659011841,&#34;a&#34;:1.0},&#34;position&#34;:1.0}],&#34;stopsVar&#34;:[{&#34;color&#34;:{&#34;r&#34;:0.036728978157043457,&#34;g&#34;:0.69576340913772583,&#34;b&#34;:0.74080401659011841,&#34;a&#34;:1.0},&#34;position&#34;:0.072115384042263031},{&#34;color&#34;:{&#34;r&#34;:0.63152480125427246,&#34;g&#34;:0.56152814626693726,&#34;b&#34;:0.99884122610092163,&#34;a&#34;:1.0},&#34;position&#34;:0.24892522394657135},{&#34;color&#34;:{&#34;r&#34;:0.43793088197708130,&#34;g&#34;:0.61853063106536865,&#34;b&#34;:0.99836909770965576,&#34;a&#34;:1.0},&#34;position&#34;:0.50198608636856079},{&#34;color&#34;:{&#34;r&#34;:0.014935921877622604,&#34;g&#34;:0.66657257080078125,&#34;b&#34;:0.93816560506820679,&#34;a&#34;:1.0},&#34;position&#34;:0.750},{&#34;color&#34;:{&#34;r&#34;:0.036728978157043457,&#34;g&#34;:0.69576340913772583,&#34;b&#34;:0.74080401659011841,&#34;a&#34;:1.0},&#34;position&#34;:1.0}],&#34;transform&#34;:{&#34;m00&#34;:-2.8610040203602694e-07,&#34;m01&#34;:-4.0000004768371582,&#34;m02&#34;:14.0,&#34;m10&#34;:4.0,&#34;m11&#34;:-2.8609616720132180e-07,&#34;m12&#34;:3.0000002384185791},&#34;opacity&#34;:1.0,&#34;blendMode&#34;:&#34;NORMAL&#34;,&#34;visible&#34;:true}" style=""/>
  <path fill-rule="evenodd" clip-rule="evenodd" d="M9 13V5H11V13C11 13.5523 10.5523 14 10 14C9.44772 14 9 13.5523 9 13Z" fill="url(#paint1_linear_382_451)" style=""/>
  <path fill-rule="evenodd" clip-rule="evenodd" d="M11 9H7V7H11V9Z" fill="url(#paint2_linear_382_451)" style=""/>
  <g clip-path="url(#paint3_angular_382_451_clip_path)" data-figma-skip-parse="true">
    <g transform="matrix(0.002 0 0 0.002 4 11)">
      <foreignObject x="-3000" y="-3000" width="6000" height="6000">
        <div xmlns="http://www.w3.org/1999/xhtml" style="background:conic-gradient(from 90deg,rgba(205, 149, 2, 1) 0deg,rgba(166, 165, 3, 1) 90deg,rgba(81, 183, 4, 1) 180deg,rgba(3, 182, 137, 1) 270deg,rgba(153, 153, 153, 1) 360deg);height:100%;width:100%;opacity:1"></div>
      </foreignObject>
    </g>
  </g>
  <path fill-rule="evenodd" clip-rule="evenodd" d="M4 9C3.44772 9 3 9.44772 3 10V11C3 11.5523 3.44772 12 4 12C4.55228 12 5 11.5523 5 11H7C7 12.6569 5.65685 14 4 14C2.34315 14 1 12.6569 1 11V10C1 8.34315 2.34315 7 4 7H5V9H4Z" data-figma-gradient-fill="{&#34;type&#34;:&#34;GRADIENT_ANGULAR&#34;,&#34;stops&#34;:[{&#34;color&#34;:{&#34;r&#34;:0.80590504407882690,&#34;g&#34;:0.58612340688705444,&#34;b&#34;:0.011313900351524353,&#34;a&#34;:1.0},&#34;position&#34;:0.0},{&#34;color&#34;:{&#34;r&#34;:0.65184032917022705,&#34;g&#34;:0.65008509159088135,&#34;b&#34;:0.013189969584345818,&#34;a&#34;:1.0},&#34;position&#34;:0.250},{&#34;color&#34;:{&#34;r&#34;:0.32150357961654663,&#34;g&#34;:0.71866887807846069,&#34;b&#34;:0.016306176781654358,&#34;a&#34;:1.0},&#34;position&#34;:0.50},{&#34;color&#34;:{&#34;r&#34;:0.015163658186793327,&#34;g&#34;:0.71580004692077637,&#34;b&#34;:0.53947478532791138,&#34;a&#34;:1.0},&#34;position&#34;:0.750},{&#34;color&#34;:{&#34;r&#34;:0.60000002384185791,&#34;g&#34;:0.60000002384185791,&#34;b&#34;:0.60000002384185791,&#34;a&#34;:1.0},&#34;position&#34;:1.0}],&#34;stopsVar&#34;:[{&#34;color&#34;:{&#34;r&#34;:0.80590504407882690,&#34;g&#34;:0.58612340688705444,&#34;b&#34;:0.011313900351524353,&#34;a&#34;:1.0},&#34;position&#34;:0.0},{&#34;color&#34;:{&#34;r&#34;:0.65184032917022705,&#34;g&#34;:0.65008509159088135,&#34;b&#34;:0.013189969584345818,&#34;a&#34;:1.0},&#34;position&#34;:0.250},{&#34;color&#34;:{&#34;r&#34;:0.32150357961654663,&#34;g&#34;:0.71866887807846069,&#34;b&#34;:0.016306176781654358,&#34;a&#34;:1.0},&#34;position&#34;:0.50},{&#34;color&#34;:{&#34;r&#34;:0.015163658186793327,&#34;g&#34;:0.71580004692077637,&#34;b&#34;:0.53947478532791138,&#34;a&#34;:1.0},&#34;position&#34;:0.750},{&#34;color&#34;:{&#34;r&#34;:0.60000002384185791,&#34;g&#34;:0.60000002384185791,&#34;b&#34;:0.60000002384185791,&#34;a&#34;:1.0},&#34;position&#34;:1.0}],&#34;transform&#34;:{&#34;m00&#34;:4.0,&#34;m01&#34;:-1.7940735119736928e-07,&#34;m02&#34;:2.0000002384185791,&#34;m10&#34;:1.7941117391728767e-07,&#34;m11&#34;:4.0,&#34;m12&#34;:9.0},&#34;opacity&#34;:1.0,&#34;blendMode&#34;:&#34;NORMAL&#34;,&#34;visible&#34;:true}" style=""/>
  <path fill-rule="evenodd" clip-rule="evenodd" d="M6 2C6.55228 2 7 2.44772 7 3V11H5V3C5 2.44772 5.44772 2 6 2Z" fill="url(#paint4_linear_382_451)" style=""/>
  <defs>
    <clipPath id="paint0_angular_382_451_clip_path">
      <path fill-rule="evenodd" clip-rule="evenodd" d="M9 5C9 3.34315 10.3431 2 12 2C13.6569 2 15 3.34315 15 5V6C15 7.65685 13.6569 9 12 9H11V7H12C12.5523 7 13 6.55228 13 6V5C13 4.44772 12.5523 4 12 4C11.4477 4 11 4.44772 11 5H9Z"/>
    </clipPath>
    <clipPath id="paint3_angular_382_451_clip_path">
      <path fill-rule="evenodd" clip-rule="evenodd" d="M4 9C3.44772 9 3 9.44772 3 10V11C3 11.5523 3.44772 12 4 12C4.55228 12 5 11.5523 5 11H7C7 12.6569 5.65685 14 4 14C2.34315 14 1 12.6569 1 11V10C1 8.34315 2.34315 7 4 7H5V9H4Z"/>
    </clipPath>
    <linearGradient id="paint1_linear_382_451" x1="10.5" y1="9" x2="10.5" y2="13" gradientUnits="userSpaceOnUse">
      <stop stop-color="#A18FFF" style="stop-color:#A18FFF;stop-color:color(display-p3 0.6315 0.5615 0.9988);stop-opacity:1;"/>
      <stop offset="1" stop-color="#FF5DBC" style="stop-color:#FF5DBC;stop-color:color(display-p3 1.0000 0.3637 0.7359);stop-opacity:1;"/>
    </linearGradient>
    <linearGradient id="paint2_linear_382_451" x1="7" y1="8.5" x2="11" y2="8.5" gradientUnits="userSpaceOnUse">
      <stop stop-color="#04B78A" style="stop-color:#04B78A;stop-color:color(display-p3 0.0152 0.7158 0.5395);stop-opacity:1;"/>
      <stop offset="1" stop-color="#09B1BD" style="stop-color:#09B1BD;stop-color:color(display-p3 0.0367 0.6958 0.7408);stop-opacity:1;"/>
    </linearGradient>
    <linearGradient id="paint4_linear_382_451" x1="6.5" y1="3" x2="6.5" y2="11" gradientUnits="userSpaceOnUse">
      <stop stop-color="#FF6C72" style="stop-color:#FF6C72;stop-color:color(display-p3 0.9989 0.4252 0.4464);stop-opacity:1;"/>
      <stop offset="1" stop-color="#CE9503" style="stop-color:#CE9503;stop-color:color(display-p3 0.8059 0.5861 0.0113);stop-opacity:1;"/>
    </linearGradient>
  </defs>
</svg>

<svg xmlns="http://www.w3.org/2000/svg" width="16" height="16" fill="none">
  <rect id="bg" width="16" height="16" rx="2" />
  <g clip-path="url(#paint0_angular_382_451_clip_path)">
    <foreignObject width="6000" height="6000" x="-3000" y="-3000" transform="matrix(0 .002 -.002 0 12 5)">
      <div xmlns="http://www.w3.org/1999/xhtml" style="background:conic-gradient(from 90deg,#09b1bc 0deg,#09b1bc 25.9615deg,#a18ffe 89.6131deg,#6f9dfe 180.715deg,#03a9ef 270deg,#09b1bc 360deg);height:100%;width:100%;opacity:1"/>
    </foreignObject>
  </g>
  <path fill-rule="evenodd" d="M9 5a3 3 0 1 1 6 0v1a3 3 0 0 1-3 3h-1V7h1a1 1 0 0 0 1-1V5a1 1 0 1 0-2 0H9Z" clip-rule="evenodd" />
  <path fill="url(#paint1_linear_382_451)" fill-rule="evenodd" d="M9 13V5h2v8a1 1 0 1 1-2 0Z" clip-rule="evenodd"/>
  <path fill="url(#paint2_linear_382_451)" fill-rule="evenodd" d="M11 9H7V7h4v2Z" clip-rule="evenodd"/>
  <g clip-path="url(#paint3_angular_382_451_clip_path)">
    <foreignObject width="6000" height="6000" x="-3000" y="-3000" transform="matrix(.002 0 0 .002 4 11)">
      <div xmlns="http://www.w3.org/1999/xhtml" style="background:conic-gradient(from 90deg,#cd9502 0deg,#a6a503 90deg,#51b704 180deg,#03b689 270deg,#999 360deg);height:100%;width:100%;opacity:1"/>
    </foreignObject>
  </g>
  <path fill-rule="evenodd" d="M4 9a1 1 0 0 0-1 1v1a1 1 0 1 0 2 0h2a3 3 0 1 1-6 0v-1a3 3 0 0 1 3-3h1v2H4Z" clip-rule="evenodd" />
  <path fill="url(#paint4_linear_382_451)" fill-rule="evenodd" d="M6 2a1 1 0 0 1 1 1v8H5V3a1 1 0 0 1 1-1Z" clip-rule="evenodd"/>
  <defs>
    <linearGradient id="paint1_linear_382_451" x1="10.5" x2="10.5" y1="9" y2="13" gradientUnits="userSpaceOnUse">
      <stop stop-color="#A18FFF" style="stop-color:#a18fff;stop-color:color(display-p3 .6315 .5615 .9988);stop-opacity:1"/>
      <stop offset="1" stop-color="#FF5DBC" style="stop-color:#ff5dbc;stop-color:color(display-p3 1 .3637 .7359);stop-opacity:1"/>
    </linearGradient>
    <linearGradient id="paint2_linear_382_451" x1="7" x2="11" y1="8.5" y2="8.5" gradientUnits="userSpaceOnUse">
      <stop stop-color="#04B78A" style="stop-color:#04b78a;stop-color:color(display-p3 .0152 .7158 .5395);stop-opacity:1"/>
      <stop offset="1" stop-color="#09B1BD" style="stop-color:#09b1bd;stop-color:color(display-p3 .0367 .6958 .7408);stop-opacity:1"/>
    </linearGradient>
    <linearGradient id="paint4_linear_382_451" x1="6.5" x2="6.5" y1="3" y2="11" gradientUnits="userSpaceOnUse">
      <stop stop-color="#FF6C72" style="stop-color:#ff6c72;stop-color:color(display-p3 .9989 .4252 .4464);stop-opacity:1"/>
      <stop offset="1" stop-color="#CE9503" style="stop-color:#ce9503;stop-color:color(display-p3 .8059 .5861 .0113);stop-opacity:1"/>
    </linearGradient>
    <clipPath id="paint0_angular_382_451_clip_path">
      <path fill-rule="evenodd" d="M9 5a3 3 0 1 1 6 0v1a3 3 0 0 1-3 3h-1V7h1a1 1 0 0 0 1-1V5a1 1 0 1 0-2 0H9Z" clip-rule="evenodd"/>
    </clipPath>
    <clipPath id="paint3_angular_382_451_clip_path">
      <path fill-rule="evenodd" d="M4 9a1 1 0 0 0-1 1v1a1 1 0 1 0 2 0h2a3 3 0 1 1-6 0v-1a3 3 0 0 1 3-3h1v2H4Z" clip-rule="evenodd"/>
    </clipPath>
  </defs>
  <style>
    #bg {
      fill: #000;
    }

    @media (prefers-color-scheme: dark) {
      #bg {
        fill: #fff;
      }
    }
  </style>
</svg>
